;FLAVOR:Marlin
;TIME:5815
;Filament used: 3.048m
;Layer height: 0.2
;MINX:96.6
;MINY:74.974
;MINZ:0.2
;MAXX:138.463
;MAXY:146.741
;MAXZ:40
;Generated with Cura_SteamEngine 5.2.1
M140 S50
M105
M190 S50
M104 S200
M105
M109 S200
M82 ;absolute extrusion mode
; Ender 3 Custom Start G-code
G92 E0 ; Reset Extruder
G28 ; Home all axes
G1 Z2.0 F3000 ; Move Z Axis up little to prevent scratching of Heat Bed
G1 X0.1 Y20 Z0.3 F5000.0 ; Move to start position
G1 X0.1 Y200.0 Z0.3 F1500.0 E15 ; Draw the first line
G1 X0.4 Y200.0 Z0.3 F5000.0 ; Move to side a little
G1 X0.4 Y20 Z0.3 F1500.0 E30 ; Draw the second line
G92 E0 ; Reset Extruder
G1 Z2.0 F3000 ; Move Z Axis up little to prevent scratching of Heat Bed
G1 X5 Y20 Z0.3 F5000.0 ; Move over to prevent blob squish
G92 E0
G92 E0
G1 F2700 E-5
;LAYER_COUNT:200
;LAYER:0
M107
G0 F6000 X99.599 Y86.041 Z0.2
;TYPE:SKIRT
G1 F2700 E0
G1 F1200 X100.253 Y85.368 E0.03121
G1 X101.171 Y84.591 E0.07121
G1 X103.57 Y82.738 E0.17204
G1 X105.522 Y81.134 E0.25607
G1 X107.676 Y79.253 E0.35118
G1 X108.057 Y78.909 E0.36825
G1 X108.827 Y78.273 E0.40147
G1 X109.754 Y77.581 E0.43995
G1 X110.524 Y77.032 E0.4714
G1 X111.31 Y76.521 E0.50258
G1 X112.137 Y76.078 E0.53378
G1 X112.999 Y75.708 E0.56498
G1 X113.889 Y75.412 E0.59618
G1 X114.801 Y75.193 E0.62738
G1 X115.728 Y75.053 E0.65856
G1 X116.717 Y74.991 E0.69152
G1 X117.948 Y74.974 E0.73246
G1 X118.833 Y74.984 E0.7619
G1 X119.77 Y75.034 E0.79311
G1 X120.699 Y75.164 E0.82431
G1 X121.613 Y75.373 E0.85549
G1 X122.506 Y75.659 E0.88668
G1 X123.372 Y76.02 E0.91789
G1 X124.203 Y76.454 E0.94907
G1 X125.04 Y76.987 E0.98207
G1 X125.732 Y77.474 E1.01022
G1 X126.749 Y78.228 E1.05232
G1 X127.477 Y78.82 E1.08353
G1 X128.037 Y79.354 E1.10927
G1 X129.654 Y81.006 E1.18616
G1 X131.507 Y82.805 E1.27205
G1 X133.367 Y84.51 E1.35598
G1 X134.514 Y85.525 E1.40692
G1 X135.19 Y86.176 E1.43813
G1 X135.807 Y86.882 E1.46932
G1 X136.362 Y87.638 E1.50051
G1 X136.851 Y88.438 E1.5317
G1 X137.27 Y89.278 E1.56292
G1 X137.618 Y90.158 E1.59439
G1 X137.762 Y90.573 E1.609
G1 X137.971 Y91.233 E1.63203
G1 X138.204 Y92.141 E1.66321
G1 X138.358 Y93.066 E1.6944
G1 X138.433 Y94.001 E1.72559
G1 X138.428 Y94.939 E1.75679
G1 X138.316 Y96.067 E1.7945
G1 X138.216 Y96.723 E1.81657
G1 X137.845 Y99.393 E1.90622
G1 X137.574 Y101.861 E1.9888
G1 X137.37 Y104.368 E2.07246
G1 X137.236 Y106.901 E2.15683
G1 X137.175 Y109.414 E2.24044
G1 X137.184 Y111.945 E2.32462
G1 X137.263 Y114.432 E2.40738
G1 X137.414 Y116.95 E2.49128
G1 X137.637 Y119.456 E2.57496
G1 X137.93 Y121.951 E2.65851
G1 X138.35 Y124.816 E2.75482
G1 X138.446 Y125.749 E2.78601
G1 X138.463 Y126.687 E2.81722
G1 X138.399 Y127.622 E2.84839
G1 X138.256 Y128.549 E2.87958
G1 X137.962 Y129.702 E2.91916
G1 X137.752 Y130.372 E2.94251
G1 X137.434 Y131.254 E2.9737
G1 X137.042 Y132.106 E3.00489
G1 X136.578 Y132.921 E3.03608
G1 X136.047 Y133.694 E3.06728
G1 X135.452 Y134.419 E3.09847
G1 X134.842 Y135.048 E3.12761
G1 X134.387 Y135.482 E3.14853
G1 X132.557 Y137.271 E3.23365
G1 X130.83 Y139.057 E3.31628
G1 X128.529 Y141.598 E3.43029
G1 X128.343 Y141.812 E3.43972
G1 X127.699 Y142.494 E3.47092
G1 X126.667 Y143.379 E3.51614
G1 X125.757 Y144.067 E3.55408
G1 X124.903 Y144.678 E3.58901
G1 X124.115 Y145.186 E3.62019
G1 X123.287 Y145.625 E3.65136
G1 X122.423 Y145.993 E3.6826
G1 X121.532 Y146.285 E3.71378
G1 X120.619 Y146.5 E3.74498
G1 X119.692 Y146.637 E3.77615
G1 X118.746 Y146.694 E3.80767
G1 X117.514 Y146.711 E3.84865
G1 X116.631 Y146.701 E3.87802
G1 X115.695 Y146.651 E3.90919
G1 X114.766 Y146.521 E3.94039
G1 X113.852 Y146.312 E3.97158
G1 X112.959 Y146.026 E4.00277
G1 X112.093 Y145.665 E4.03397
G1 X111.261 Y145.231 E4.06518
G1 X110.437 Y144.706 E4.09768
G1 X109.743 Y144.219 E4.12588
G1 X108.73 Y143.471 E4.16776
G1 X108.001 Y142.88 E4.19897
G1 X107.085 Y141.967 E4.24199
G1 X106.654 Y141.484 E4.26352
G1 X104.888 Y139.565 E4.35026
G1 X103.123 Y137.752 E4.43442
G1 X101.25 Y135.936 E4.52119
G1 X100.562 Y135.288 E4.55262
G1 X99.908 Y134.616 E4.58381
G1 X99.312 Y133.891 E4.61503
G1 X98.781 Y133.118 E4.64622
G1 X98.318 Y132.303 E4.67739
G1 X97.926 Y131.451 E4.70859
G1 X97.715 Y130.894 E4.7284
G1 X97.578 Y130.5 E4.74227
G1 X97.378 Y129.875 E4.7641
G1 X97.141 Y128.968 E4.79528
G1 X96.982 Y128.043 E4.82649
G1 X96.903 Y127.109 E4.85767
G1 X96.903 Y126.171 E4.88887
G1 X96.998 Y125.127 E4.92373
G1 X97.41 Y122.167 E5.02313
G1 X97.683 Y119.669 E5.10671
G1 X97.885 Y117.17 E5.1901
G1 X98.017 Y114.654 E5.2739
G1 X98.077 Y112.13 E5.35787
G1 X98.067 Y109.607 E5.44179
G1 X97.985 Y107.109 E5.52491
G1 X97.832 Y104.574 E5.60938
G1 X97.608 Y102.074 E5.69287
G1 X97.316 Y99.597 E5.77582
G1 X96.929 Y96.964 E5.86434
G1 X96.738 Y95.773 E5.90446
G1 X96.629 Y94.841 E5.93567
G1 X96.6 Y93.904 E5.96684
G1 X96.65 Y92.967 E5.99805
G1 X96.781 Y92.038 E6.02926
G1 X97.097 Y90.755 E6.07321
G1 X97.304 Y90.091 E6.09634
G1 X97.622 Y89.209 E6.12752
G1 X98.013 Y88.356 E6.15873
G1 X98.475 Y87.54 E6.18992
G1 X99.005 Y86.766 E6.22112
G1 X99.599 Y86.041 E6.25229
G0 F6000 X99.954 Y86.244
G1 F1200 X100.602 Y85.59 E6.28292
G1 X101.413 Y84.91 E6.31812
G1 X103.824 Y83.048 E6.41944
G1 X105.793 Y81.429 E6.50422
G1 X107.924 Y79.569 E6.5983
G1 X108.325 Y79.206 E6.61629
G1 X109.067 Y78.593 E6.6483
G1 X109.986 Y77.907 E6.68645
G1 X110.756 Y77.358 E6.7179
G1 X111.528 Y76.857 E6.74851
G1 X112.341 Y76.424 E6.77915
G1 X113.188 Y76.064 E6.80976
G1 X114.064 Y75.778 E6.84041
G1 X114.96 Y75.57 E6.871
G1 X115.872 Y75.44 E6.90164
G1 X116.724 Y75.391 E6.93002
G1 X117.944 Y75.374 E6.9706
G1 X118.829 Y75.384 E7.00004
G1 X119.748 Y75.434 E7.03065
G1 X120.659 Y75.564 E7.06126
G1 X121.556 Y75.773 E7.09189
G1 X122.431 Y76.058 E7.1225
G1 X123.279 Y76.419 E7.15315
G1 X124.091 Y76.851 E7.18375
G1 X124.81 Y77.314 E7.21219
G1 X125.502 Y77.801 E7.24033
G1 X126.51 Y78.549 E7.28208
G1 X127.224 Y79.13 E7.3127
G1 X127.751 Y79.633 E7.33693
G1 X129.391 Y81.309 E7.41492
G1 X131.205 Y83.069 E7.49899
G1 X133.146 Y84.849 E7.58658
G1 X134.249 Y85.825 E7.63557
G1 X134.912 Y86.464 E7.66619
G1 X135.516 Y87.159 E7.69682
G1 X136.058 Y87.903 E7.72743
G1 X136.533 Y88.691 E7.75804
G1 X136.938 Y89.518 E7.78866
G1 X137.24 Y90.289 E7.8162
G1 X137.384 Y90.704 E7.83081
G1 X137.588 Y91.348 E7.85328
G1 X137.816 Y92.24 E7.8839
G1 X137.965 Y93.149 E7.91454
G1 X138.035 Y94.067 E7.94516
G1 X138.025 Y94.987 E7.97576
G1 X137.921 Y96.007 E8.00987
G1 X137.8 Y96.803 E8.03664
G1 X137.454 Y99.296 E8.12036
G1 X137.173 Y101.853 E8.20591
G1 X136.97 Y104.351 E8.28927
G1 X136.837 Y106.869 E8.37314
G1 X136.775 Y109.408 E8.45761
G1 X136.783 Y111.924 E8.54129
G1 X136.864 Y114.469 E8.62598
G1 X137.015 Y116.973 E8.70942
G1 X137.24 Y119.505 E8.79396
G1 X137.535 Y122.019 E8.87815
G1 X137.954 Y124.874 E8.97413
G1 X138.048 Y125.79 E9.00476
G1 X138.062 Y126.71 E9.03536
G1 X137.996 Y127.629 E9.066
G1 X137.851 Y128.538 E9.09662
G1 X137.581 Y129.582 E9.13249
G1 X137.371 Y130.252 E9.15584
G1 X137.058 Y131.118 E9.18647
G1 X136.67 Y131.953 E9.21709
G1 X136.212 Y132.752 E9.24772
G1 X135.686 Y133.508 E9.27835
G1 X135.097 Y134.215 E9.30896
G1 X134.566 Y134.758 E9.33422
G1 X134.114 Y135.188 E9.35497
G1 X132.291 Y136.972 E9.4398
G1 X130.514 Y138.809 E9.52481
G1 X128.257 Y141.301 E9.63664
G1 X128.041 Y141.55 E9.6476
G1 X127.408 Y142.219 E9.67823
G1 X126.426 Y143.06 E9.72124
G1 X125.516 Y143.748 E9.75918
G1 X124.672 Y144.351 E9.79368
G1 X123.898 Y144.85 E9.82431
G1 X123.084 Y145.279 E9.85491
G1 X122.235 Y145.636 E9.88555
G1 X121.359 Y145.918 E9.91615
G1 X120.461 Y146.123 E9.94679
G1 X119.549 Y146.249 E9.97741
G1 X118.739 Y146.294 E10.00439
G1 X117.519 Y146.311 E10.04498
G1 X116.636 Y146.301 E10.07435
G1 X115.717 Y146.251 E10.10496
G1 X114.805 Y146.121 E10.1356
G1 X113.909 Y145.912 E10.1662
G1 X113.033 Y145.627 E10.19684
G1 X112.186 Y145.266 E10.22746
G1 X111.373 Y144.834 E10.25808
G1 X110.667 Y144.379 E10.28602
G1 X109.739 Y143.723 E10.32382
G1 X108.968 Y143.15 E10.35577
G1 X108.254 Y142.569 E10.38638
G1 X107.383 Y141.701 E10.42728
G1 X106.933 Y141.197 E10.44975
G1 X105.185 Y139.298 E10.5356
G1 X103.405 Y137.469 E10.62048
G1 X101.483 Y135.606 E10.70951
G1 X100.836 Y134.996 E10.73909
G1 X100.194 Y134.337 E10.76969
G1 X99.612 Y133.624 E10.8003
G1 X99.094 Y132.863 E10.83092
G1 X98.643 Y132.06 E10.86155
G1 X98.264 Y131.221 E10.89217
G1 X97.956 Y130.368 E10.92233
G1 X97.761 Y129.757 E10.94367
G1 X97.529 Y128.866 E10.97429
G1 X97.375 Y127.959 E11.00489
G1 X97.3 Y127.041 E11.03552
G1 X97.306 Y126.12 E11.06616
G1 X97.394 Y125.182 E11.09749
G1 X97.809 Y122.199 E11.19766
G1 X98.081 Y119.708 E11.281
G1 X98.285 Y117.189 E11.36506
G1 X98.416 Y114.683 E11.44853
G1 X98.477 Y112.138 E11.5332
G1 X98.467 Y109.592 E11.61788
G1 X98.386 Y107.108 E11.70054
G1 X98.231 Y104.547 E11.78587
G1 X98.005 Y102.028 E11.86999
G1 X97.711 Y99.529 E11.95368
G1 X97.326 Y96.908 E12.04179
G1 X97.133 Y95.709 E12.08219
G1 X97.027 Y94.795 E12.11279
G1 X97 Y93.874 E12.14344
G1 X97.054 Y92.955 E12.17405
G1 X97.186 Y92.044 E12.20467
G1 X97.479 Y90.874 E12.24479
G1 X97.686 Y90.21 E12.26792
G1 X97.998 Y89.344 E12.29854
G1 X98.384 Y88.508 E12.32916
G1 X98.841 Y87.709 E12.35978
G1 X99.366 Y86.952 E12.39042
G1 X99.954 Y86.244 E12.42103
G0 F6000 X100.308 Y86.449
G1 F1200 X100.949 Y85.813 E12.45106
G1 X101.654 Y85.229 E12.48151
G1 X104.077 Y83.357 E12.58335
G1 X106.044 Y81.74 E12.66804
G1 X108.171 Y79.883 E12.76195
G1 X108.593 Y79.502 E12.78086
G1 X109.307 Y78.913 E12.81165
G1 X110.014 Y78.382 E12.84106
G1 X110.989 Y77.684 E12.88094
G1 X111.746 Y77.193 E12.91095
G1 X112.545 Y76.77 E12.94102
G1 X113.377 Y76.42 E12.97104
G1 X114.237 Y76.145 E13.00107
G1 X115.119 Y75.948 E13.03113
G1 X116.014 Y75.828 E13.06116
G1 X116.731 Y75.791 E13.08504
G1 X117.939 Y75.774 E13.12522
G1 X118.824 Y75.784 E13.15466
G1 X119.726 Y75.834 E13.18471
G1 X120.62 Y75.964 E13.21475
G1 X121.498 Y76.172 E13.24477
G1 X122.355 Y76.457 E13.2748
G1 X123.184 Y76.817 E13.30486
G1 X123.977 Y77.249 E13.3349
G1 X124.579 Y77.642 E13.35881
G1 X125.497 Y78.292 E13.39622
G1 X126.271 Y78.869 E13.42833
G1 X126.971 Y79.441 E13.4584
G1 X127.465 Y79.913 E13.48112
G1 X129.09 Y81.574 E13.55841
G1 X130.939 Y83.368 E13.6441
G1 X132.863 Y85.132 E13.73091
G1 X133.984 Y86.124 E13.7807
G1 X134.634 Y86.752 E13.81076
G1 X135.225 Y87.435 E13.8408
G1 X135.753 Y88.167 E13.87082
G1 X136.215 Y88.943 E13.90086
G1 X136.606 Y89.757 E13.9309
G1 X136.862 Y90.42 E13.95453
G1 X137.006 Y90.835 E13.96914
G1 X137.205 Y91.464 E13.99109
G1 X137.428 Y92.339 E14.02112
G1 X137.572 Y93.231 E14.05117
G1 X137.637 Y94.131 E14.08118
G1 X137.622 Y95.034 E14.11122
G1 X137.525 Y95.947 E14.14176
G1 X137.415 Y96.671 E14.16612
G1 X137.054 Y99.268 E14.25332
G1 X136.775 Y101.812 E14.33844
G1 X136.573 Y104.295 E14.4213
G1 X136.436 Y106.874 E14.5072
G1 X136.375 Y109.4 E14.59124
G1 X136.383 Y111.938 E14.67566
G1 X136.464 Y114.471 E14.75995
G1 X136.618 Y117.034 E14.84535
G1 X136.841 Y119.547 E14.92926
G1 X137.136 Y122.057 E15.01331
G1 X137.558 Y124.932 E15.10996
G1 X137.649 Y125.83 E15.13998
G1 X137.661 Y126.734 E15.17005
G1 X137.593 Y127.634 E15.20007
G1 X137.445 Y128.525 E15.23011
G1 X137.199 Y129.463 E15.26237
G1 X136.989 Y130.133 E15.28572
G1 X136.681 Y130.982 E15.31576
G1 X136.299 Y131.8 E15.34578
G1 X135.846 Y132.581 E15.37581
G1 X135.326 Y133.32 E15.40587
G1 X134.743 Y134.009 E15.43589
G1 X134.29 Y134.469 E15.45736
G1 X133.841 Y134.897 E15.47799
G1 X131.989 Y136.709 E15.56417
G1 X130.243 Y138.514 E15.64769
G1 X127.942 Y141.054 E15.76169
G1 X127.739 Y141.288 E15.77199
G1 X127.117 Y141.943 E15.80203
G1 X126.184 Y142.741 E15.84287
G1 X125.011 Y143.622 E15.89166
G1 X124.441 Y144.025 E15.91488
G1 X123.682 Y144.513 E15.94489
G1 X122.882 Y144.932 E15.97493
G1 X122.048 Y145.279 E16.00497
G1 X121.187 Y145.55 E16.03499
G1 X120.305 Y145.744 E16.06503
G1 X119.409 Y145.86 E16.09508
G1 X118.732 Y145.894 E16.11762
G1 X117.523 Y145.911 E16.15784
G1 X116.64 Y145.901 E16.18721
G1 X115.739 Y145.851 E16.21722
G1 X114.845 Y145.721 E16.24727
G1 X113.966 Y145.513 E16.27731
G1 X113.109 Y145.228 E16.30735
G1 X112.281 Y144.868 E16.33738
G1 X111.488 Y144.436 E16.36742
G1 X110.897 Y144.051 E16.39088
G1 X109.978 Y143.402 E16.4283
G1 X109.207 Y142.829 E16.46025
G1 X108.506 Y142.258 E16.49032
G1 X107.682 Y141.435 E16.52905
G1 X107.245 Y140.945 E16.55089
G1 X105.466 Y139.012 E16.63827
G1 X103.688 Y137.185 E16.72306
G1 X101.754 Y135.31 E16.81265
G1 X101.111 Y134.705 E16.84202
G1 X100.481 Y134.057 E16.87208
G1 X99.912 Y133.357 E16.90208
G1 X99.407 Y132.608 E16.93212
G1 X98.969 Y131.818 E16.96217
G1 X98.471 Y130.631 E17.00498
G1 X98.334 Y130.237 E17.01886
G1 X98.143 Y129.64 E17.0397
G1 X97.916 Y128.766 E17.06974
G1 X97.768 Y127.875 E17.09978
G1 X97.698 Y126.974 E17.12984
G1 X97.709 Y126.071 E17.15987
G1 X97.79 Y125.237 E17.18774
G1 X98.204 Y122.264 E17.28758
G1 X98.478 Y119.747 E17.37179
G1 X98.684 Y117.206 E17.45658
G1 X98.817 Y114.678 E17.54078
G1 X98.877 Y112.146 E17.62502
G1 X98.867 Y109.613 E17.70926
G1 X98.783 Y107.035 E17.79505
G1 X98.631 Y104.524 E17.87872
G1 X98.406 Y102.017 E17.96244
G1 X98.109 Y99.491 E18.04704
G1 X97.708 Y96.765 E18.13868
G1 X97.528 Y95.646 E18.17637
G1 X97.424 Y94.749 E18.20641
G1 X97.401 Y93.846 E18.23645
G1 X97.457 Y92.945 E18.26648
G1 X97.592 Y92.052 E18.29652
G1 X97.861 Y90.993 E18.33286
G1 X98.068 Y90.329 E18.35599
G1 X98.375 Y89.48 E18.38602
G1 X98.756 Y88.661 E18.41606
G1 X99.207 Y87.879 E18.44609
G1 X99.726 Y87.14 E18.47612
G1 X100.308 Y86.449 E18.50617
G1 F2700 E13.50617
G0 F6000 X117.668 Y88.641
G1 F2700 E18.50617
G1 F1200 X117.762 Y88.573 E18.51003
G1 X117.872 Y88.573 E18.51369
G1 X117.966 Y88.641 E18.51755
G1 X118 Y88.747 E18.52125
G1 X117.966 Y88.853 E18.52495
G1 X117.872 Y88.921 E18.52881
G1 X117.762 Y88.921 E18.53247
G1 X117.668 Y88.853 E18.53633
G1 X117.634 Y88.747 E18.54003
G1 X117.668 Y88.641 E18.54373
G0 F6000 X117.328 Y88.395
G1 F1200 X117.633 Y88.173 E18.55628
G1 X118.001 Y88.173 E18.56852
G1 X118.306 Y88.395 E18.58107
G1 X118.42 Y88.747 E18.59337
G1 X118.306 Y89.099 E18.60568
G1 X118.001 Y89.321 E18.61823
G1 X117.633 Y89.321 E18.63047
G1 X117.328 Y89.099 E18.64301
G1 X117.214 Y88.747 E18.65532
G1 X117.328 Y88.395 E18.66762
G0 F6000 X116.989 Y88.146
G1 F1200 X117.501 Y87.773 E18.68869
G1 X118.133 Y87.773 E18.70971
G1 X118.645 Y88.146 E18.73078
G1 X118.841 Y88.747 E18.75181
G1 X118.645 Y89.348 E18.77283
G1 X118.133 Y89.721 E18.7939
G1 X117.501 Y89.721 E18.81492
G1 X116.989 Y89.348 E18.83599
G1 X116.793 Y88.747 E18.85702
G1 X116.989 Y88.146 E18.87804
G0 F6000 X116.647 Y87.9
G1 F1200 X117.372 Y87.373 E18.90785
G1 X118.262 Y87.373 E18.93746
G1 X118.987 Y87.9 E18.96727
G1 X119.262 Y88.747 E18.99689
G1 X118.987 Y89.594 E19.02651
G1 X118.262 Y90.121 E19.05632
G1 X117.372 Y90.121 E19.08592
G1 X116.647 Y89.594 E19.11573
G1 X116.372 Y88.747 E19.14535
G1 X116.647 Y87.9 E19.17497
G0 F6000 X116.308 Y87.653
G1 F1200 X117.241 Y86.973 E19.21337
G1 X118.393 Y86.973 E19.25168
G1 X119.326 Y87.653 E19.29008
G1 X119.682 Y88.747 E19.32835
G1 X119.326 Y89.841 E19.36661
G1 X118.393 Y90.521 E19.40501
G1 X117.241 Y90.521 E19.44332
G1 X116.308 Y89.841 E19.48172
G1 X115.952 Y88.747 E19.51999
G1 X116.308 Y87.653 E19.55825
G0 F6000 X115.968 Y87.405
G1 F1200 X117.111 Y86.573 E19.60527
G1 X118.523 Y86.573 E19.65224
G1 X119.666 Y87.405 E19.69926
G1 X120.102 Y88.747 E19.74619
G1 X119.666 Y90.089 E19.79312
G1 X118.523 Y90.921 E19.84014
G1 X117.111 Y90.921 E19.88711
G1 X115.968 Y90.089 E19.93413
G1 X115.532 Y88.747 E19.98106
G1 X115.968 Y87.405 E20.02799
G0 F6000 X115.627 Y87.159
G1 F1200 X116.982 Y86.173 E20.08373
G1 X118.652 Y86.173 E20.13927
G1 X120.007 Y87.159 E20.19501
G1 X120.524 Y88.747 E20.25055
G1 X120.007 Y90.335 E20.3061
